X:290
T:Street Player, The
R:reel
C:Ed Reavy
H:Originally composed as a hornpipe
Z:id:hn-reel-290
M:C|
K:D
DFAd ~f3e|dcde fdAF|G2FG E3F|G2FG EFGE|
FD~D2 FDFA|BG~G2 Bcde|f2af gecd|1 eddc d4:|2 eddc d3e||
|:fddc dfaf|gfed cdeg|~f3a gfed|cAAG A3G|
FD~D2 FA~A2|BG~G2 Bcde|f2af gecd|1 eddc d3e:|2 eddc d4||

